X:5
T:Ton double plin
%T:TD1
G:Kazimodal
R:Dañs Plin
C:Traditionnel
Q:C2=160
P:(EF)3EG
M:4/4
S:Pennoù Skoulm
K:Am
P:E
%%MIDI gchord fzczfccz
%%MIDI bassprog 42
%%MIDI bassvol 127
%%MIDI chordprog 41
%%MIDI program 23
|: "Am"A>G AB "G"ed B2 | "F"c2 Ac "Em"BB "Am"A2 :|
P:F
|: "Am"e>d "G"gf ed "C"c2 | (3cBc "Dm"dd cd "Em"e2 |\
	e>d gf ed "F"c2 | (3cBc "G"dd "Em"cB "Am"A2 :|
P:G
|: "Am"e>d "G"gf ed "C"c2 | (3cBc "Dm"dd cd "Em"e2 |\
	e>d "F"gf ed "F"c2 | (3cBc "G"dd "Em"cB "Am"AB :|


